src/Assets/Icons/General/SubNavbarComponent/email.svg

<svg width="16" height="16" viewBox="0 0 16 16" fill="none" xmlns="http://www.w3.org/2000/svg">
<path d="M3.09384 3.19971H13.6938C14.6938 3.19971 15.1978 3.67171 15.1978 4.63171V11.3677C15.1978 12.3197 14.6938 12.7997 13.6938 12.7997H3.09384C2.09384 12.7997 1.58984 12.3197 1.58984 11.3677V4.63171C1.58984 3.67171 2.09384 3.19971 3.09384 3.19971ZM8.38984 10.0797L13.7818 5.65571C13.9738 5.49571 14.1258 5.12771 13.8858 4.79971C13.6538 4.47171 13.2298 4.46371 12.9498 4.66371L8.38984 7.75171L3.83784 4.66371C3.55784 4.46371 3.13384 4.47171 2.90184 4.79971C2.66184 5.12771 2.81384 5.49571 3.00584 5.65571L8.38984 10.0797Z" fill="white"/>
</svg>

<svg xmlns="http://www.w3.org/2000/svg" width="16" height="16" fill="none"><path fill="#fff" d="M3.094 3.2h10.6c1 0 1.504.472 1.504 1.432v6.736c0 .952-.504 1.432-1.504 1.432h-10.6c-1 0-1.504-.48-1.504-1.432V4.632c0-.96.504-1.432 1.504-1.432m5.296 6.88 5.392-4.424c.192-.16.344-.528.104-.856-.232-.328-.656-.336-.936-.136L8.39 7.752 3.838 4.664c-.28-.2-.704-.192-.936.136-.24.328-.088.696.104.856z"/></svg>
